X: 1
T: Unzer Toyrele
T: Our Dear Torah
M: C
L: 16
O: trad 19th C.
Z: 2008 John Chambers <jc:trillian.mit.edu>
M: C
L: 1/8
K: Cphr
"A"\
|: "C"cd =e2 e2 ec | =eg "Fm"f2 f2 zf | "C"=e3 f ga ga | g2 g2 c'2 z2 \
|  "C"cd =e2 e2 ec | =eg "Fm"f2 f2 zf | "C"=eB cd e3 d | cd c2 z4 :|
"B"\
|: "C"ba g2 g2 z2 | gf =e2 e2 zg | gf f=e ed de/d/ | c2 =e2 g2 c'2 \
|  "C"ba g2 g2 z2 | gf =e2 e2 zg | "Bbm"gf f=e e3 d |1 "C"c2 c'4 z2 :|2 "C"c4 z2 zc ||
"C"\
|: "C"=ef g2 "Fm"f2 f2 | f=e dc "Bbm"B4 | Bc d=e fg a=a | ba gf "C"=ed cB \
|  "C"=ef g2 "Fm"f2 f2 | "Bm"ba gf "C"=e3 g | gf f=e "Bbm"ed Bd | "C"c4 z2 c2 :|
"D"\
[| "Fm"f8 | f8 | f4 f4 | f2 f2 f2 f2 |]
"E"\
|: "Fm"ag f2 f2 c'2 | c'b a2 a2 z2 | "Bbm"b2 a2 b2 a2 | b2 c'2 "Fm"ag f2 \
|  "Fm"ag f2 f2 c'2 | c'b a2 a2 z2 | ag a2 "Ebm"a_g fg | "Fm"f6 z2 :|[K:=B=e=A=d]
K: C
"F"\
[| "C"e2 g2 "Bbm"fe _d2 | "C"e2 c2 G2 c2 | ef g2 "Bbm"fe _d2 | "C"e2 c2 G2 c2 \
|  "C"e2 g2 "Bbm"fe _d2 | "C"e2 c2 G2 c2 | ef g2 "Bbm"fe _d2 | "C"c6 G2 :|
